X:7936
T:Jerry Buck. JB.34
M:4/4
L:1/8
Q:120
S:James Biggins MS, Leeds, 1779.
R:Misc.
O:England
A:Yorkshire
Z:vmp.Nick Barber & Chris Partington
K:Bb
Bdfb Acfa|GBeg fcBA|BGFE BFED|"A in ms"B,B A/B/c/A/B2B,2:|!
|:B2d/c/B fBdB|Fc A/B/c/A/ Fc A/B/c/A/|B2d/c/B fBgB|GB A/B/c/A/B2B,2:|!
|:bfdB fdBF|Gc=Bd cBcG|bagf edcB|FB A/B/c/A/B2B,2:|]


